assets/Poultry leg/Flat/poultry_leg_flat.svg

<svg width="32" height="32" viewBox="0 0 32 32" fill="none" xmlns="http://www.w3.org/2000/svg">
<path d="M2.9869 10.4585C4.0569 11.3985 5.69689 11.3985 6.77689 10.4585C6.98689 10.2685 7.30689 10.2685 7.50689 10.4685L13.4469 16.3585L16.3969 13.3785L10.4569 7.48848C10.2569 7.28848 10.2469 6.96847 10.4369 6.75847C11.3669 5.67847 11.3569 4.03849 10.4069 2.96849C9.2969 1.71849 7.36688 1.67849 6.20688 2.84849C5.65688 3.39849 5.37689 4.12849 5.36689 4.84849C5.36689 5.14849 5.11688 5.39848 4.81688 5.39848C4.09688 5.40848 3.36688 5.69849 2.81688 6.24849C1.67688 7.42849 1.7269 9.35848 2.9869 10.4585Z" fill="#D3D3D3"/>
<path d="M15.0667 27.4585C18.5767 30.9385 24.2767 30.8685 27.6967 27.2585C30.9567 23.8085 30.8867 18.3285 27.5367 14.9585C25.3867 12.8085 22.4067 11.9885 19.6367 12.5185C18.5067 12.7285 17.3467 12.3985 16.5267 11.5885L14.8667 9.9385C13.9367 9.0085 12.4267 9.01848 11.5067 9.94848L9.9767 11.4885C9.04669 12.4185 9.0567 13.9285 9.9867 14.8485L11.6067 16.4585C12.4467 17.2885 12.7967 18.4785 12.5867 19.6385C12.1067 22.3985 12.9267 25.3385 15.0667 27.4585Z" fill="#D3883E"/>
<g opacity="0.7">
<path d="M23.6668 16.7585C24.3295 16.7585 24.8668 16.2212 24.8668 15.5585C24.8668 14.8957 24.3295 14.3585 23.6668 14.3585C23.0041 14.3585 22.4668 14.8957 22.4668 15.5585C22.4668 16.2212 23.0041 16.7585 23.6668 16.7585Z" fill="#A56953"/>
<path d="M26.5069 22.4084C27.5838 22.4084 28.4569 21.5354 28.4569 20.4584C28.4569 19.3815 27.5838 18.5084 26.5069 18.5084C25.4299 18.5084 24.5569 19.3815 24.5569 20.4584C24.5569 21.5354 25.4299 22.4084 26.5069 22.4084Z" fill="#A56953"/>
<path d="M23.5269 19.0184C23.5269 19.4934 23.1419 19.8784 22.6669 19.8784C22.1919 19.8784 21.8069 19.4934 21.8069 19.0184C21.8069 18.5435 22.1919 18.1584 22.6669 18.1584C23.1419 18.1584 23.5269 18.5435 23.5269 19.0184Z" fill="#A56953"/>
</g>
</svg>

<svg xmlns="http://www.w3.org/2000/svg" width="32" height="32" fill="none"><path fill="#D3D3D3" d="M2.987 10.459c1.07.94 2.71.94 3.79 0 .21-.19.53-.19.73.01l5.94 5.89 2.95-2.98-5.94-5.89c-.2-.2-.21-.52-.02-.73a2.9 2.9 0 0 0-.03-3.79 2.885 2.885 0 0 0-5.04 1.88c0 .3-.25.55-.55.55-.72.01-1.45.3-2 .85-1.14 1.18-1.09 3.11.17 4.21Z"/><path fill="#D3883E" d="M15.067 27.459c3.51 3.48 9.21 3.41 12.63-.2 3.26-3.45 3.19-8.93-.16-12.3a8.818 8.818 0 0 0-7.9-2.44c-1.13.21-2.29-.12-3.11-.93l-1.66-1.65c-.93-.93-2.44-.92-3.36.01l-1.53 1.54c-.93.93-.92 2.44.01 3.36l1.62 1.61c.84.83 1.19 2.02.98 3.18-.48 2.76.34 5.7 2.48 7.82Z"/><g fill="#A56953" opacity=".7"><path d="M23.667 16.759a1.2 1.2 0 1 0 0-2.4 1.2 1.2 0 0 0 0 2.4ZM26.507 22.408a1.95 1.95 0 1 0 0-3.9 1.95 1.95 0 0 0 0 3.9ZM23.527 19.018a.86.86 0 1 1-1.72 0 .86.86 0 0 1 1.72 0Z"/></g></svg>
